frontend/public/assets/material-icons/remix_light.svg

<svg xmlns="http://www.w3.org/2000/svg" viewBox="0 0 32 32"><path fill="#455a64" d="M28 12v-2a8 8 0 0 0-8-8H4v6h12.83a3.114 3.114 0 0 1 3.166 2.839A3 3 0 0 1 17 14H4v6h12a4 4 0 0 1 4 4v6h8v-5a7 7 0 0 0-7-7h1a6 6 0 0 0 6-6M12 26H4v4h10v-2a2 2 0 0 0-2-2"/></svg>

<svg xmlns="http://www.w3.org/2000/svg" viewBox="0 0 32 32">
  <g>
    <path d="M28,12V10a8,8,0,0,0-8-8H4V8H16.83027a3.11446,3.11446,0,0,1,3.16549,2.83868A3.00014,3.00014,0,0,1,17,14H4v6H16a4,4,0,0,1,4,4v6h8V25a7,7,0,0,0-7-7h1A6,6,0,0,0,28,12Z" style="fill: #455a64"/>
    <path d="M12,26H4v4H14V28A2,2,0,0,0,12,26Z" style="fill: #455a64"/>
  </g>
</svg>
